X:1
T:Title
%%score { ( 1 3 4 ) | ( 2 5 ) }
L:1/8
M:3/4
K:D
V:1 treble nm="Grand Piano"
V:3 treble 
V:4 treble 
V:2 bass 
V:5 bass 
V:1
 z2 z2[Q:1/4=100] A2 | [FA]4 z2 | [FA]4 z2 | [CE]2 [A,B,D]2 [A,CE]2 | [DF]4[K:bass] z2 | [EG]4 z2 | %6
 [DF]2 [A,D]2 [DF]2 | [FA]2 [EG]2 [F,A,DF]2 | z2 A,2 A2 | [FA]4 z2 | [FA]4 z2 | %11
 [CE]2 [A,B,D]2 [A,CE]2 | [DF]4[K:bass] z2 | G4 z2 | [FA]4 z2 | z2 [CF]4 |[M:2/4] D4 |[M:1/4] A2 | %18
[M:3/4] A6- | A4 z2 | A6- | A4 z2 | [Gc]4 [CG]2 | [Ac]4 .[B,GB]2 | [DFB]4 [A,DF]2 |[M:2/4] [DFA]4 | %26
[M:1/4] A2 |[M:3/4] A6- | A4 z2 | A6- | A4 z2 | [Gc]4 [CG]2 | [Gc]4 A2 | d6- |[M:2/4] d4 |] %35
V:2
 z2 z2 F2 | [D,,D,]2 z E [D,F,A,D]2 | z2 [D,F,]2 z2 | A,,2 G,2 G,2 | [D,,D,]2 D,2 D,2 | %5
 A,,2 z D [G,A,C]2 | [D,,D,]2 [D,F,]2 [D,F,A,]2 | [D,,D,]2 [D,F,A,]2 D,2 | A,,2 G,2 [A,CG]2 | %9
 [D,,D,]2 z E [D,F,A,D]2 | z2 [D,F,]2 z2 | A,,2 G,2 G,2 | [D,,D,]2 D,2 D,2 | G,,2 z D [G,B,D]2 | %14
 z2 [D,F,]2 z2 | z2 z2 G,2 |[M:2/4] [D,F,A,]4 |[M:1/4] z2 |[M:3/4] z2 z2 [A,,E,]2 | [A,,G,]4 z2 | %20
 z2 z2 [D,F,]2 | [D,A,]4 [D,A,]2 | [E,A,]4 [E,A,]2 | [A,,A,]4 z C | D,4 D,2 |[M:2/4] D,4 | %26
[M:1/4] z2 |[M:3/4] z2 z2 [A,,E,]2 | [A,,G,]4 z2 | z2 z2 [D,F,]2 | [D,A,]4 [D,A,]2 | %31
 [A,,A,]4 [E,A,]2 | [A,,A,]4 [A,G]2 | [D,A,]4 [D,B,]2 |[M:2/4] [D,A,]4 |] %35
V:3
 x6 | z2 z G F2 | z2 z G [F,A,DF]2 | x6 | z2[K:bass] [F,A,]2 [F,A,DF]2 | z2 z F E2 | x6 | x6 | %8
 [CE]4 z2 | z2 z G F2 | z2 z G [F,A,DF]2 | x6 | z2[K:bass] [F,A,]2 [F,A,=CF]2 | B,2 z A B2 | %14
 z2 z G [F,A,DF]2 | [CE]2 A,2 z E |[M:2/4] x4 |[M:1/4] x2 |[M:3/4] z2 z2 C2 | E4 A2 | z2 z2 D2 | %21
 F4 [Fd]2 | x6 | x6 | x6 |[M:2/4] x4 |[M:1/4] x2 |[M:3/4] z2 z2 C2 | E4 A2 | z2 z2 D2 | F4 [Fd]2 | %31
 x6 | x6 | F4 G2 |[M:2/4] F4 |] %35
V:4
 x6 | z2 A,2 z2 | z2 A,2 z2 | x6 | x2[K:bass] x4 | z2 A,2 z2 | x6 | x6 | x6 | z2 A,2 z2 | %10
 z2 A,2 z2 | x6 | x2[K:bass] x4 | z2 B,2 z2 | z2 A,2 z2 | z2 z2 A,2 |[M:2/4] x4 |[M:1/4] x2 | %18
[M:3/4] x6 | x6 | x6 | x6 | x6 | x6 | x6 |[M:2/4] x4 |[M:1/4] x2 |[M:3/4] x6 | x6 | x6 | x6 | x6 | %32
 x6 | x6 |[M:2/4] x4 |] %35
V:5
 x6 | z2 [D,F,]2 z2 | [D,,D,]2 z E D,2 | x6 | x6 | z2 G,2 z2 | x6 | x6 | x6 | z2 [D,F,]2 z2 | %10
 [D,,D,]2 z E D,2 | x6 | x6 | z2 G,2 z2 | [D,,D,]2 z E D,2 | A,,2 G,2 z C |[M:2/4] x4 |[M:1/4] x2 | %18
[M:3/4] x6 | x6 | x6 | x6 | x6 | z2 z2 A,,2 | x6 |[M:2/4] x4 |[M:1/4] x2 |[M:3/4] x6 | x6 | x6 | %30
 x6 | x6 | x6 | x6 |[M:2/4] x4 |] %35

